X: 9
T:Never Love Thee More
% Nottingham Music Database
S:Playford
M:6/8
K:G
P:A
"G"DED G2A|"G"BcB A2G|"G7"dB2 A2G|"C"E3 -E3|"G"DED G2A|
"G"BcB A2G|"G"dB2 c2d|"C"e3 -e2e|"G"dB2 A2G|"C"c2d edc|"G"dBc "C"A2G|
"Am"E3 "D7"G2E|"G"DED G2A|"G"Bcd "C"edc|"Am"dBc "D7"A2G|"G"G3 -G2||


